src/icons/sponsors/deepgram.svg

<svg width="223" height="28" viewBox="0 0 223 28" fill="none" xmlns="http://www.w3.org/2000/svg">
  <path d="M60.4252 13.8164H52.8574V27.6313H60.4252V13.8164Z" fill="#000000"></path>
  <path d="M32.3418 13.8149C32.3418 15.0736 32.3418 16.0701 32.3418 16.8149C32.6122 24.0178 36.775 27.6192 44.8303 27.6192H56.5716V21.7031H45.0758C44.4043 21.7577 43.7284 21.6811 43.0872 21.4776C42.446 21.2742 41.8521 20.9479 41.3399 20.5177C40.4534 19.4738 39.9965 18.1417 40.059 16.7834C40.0057 16.0177 39.9737 15.0316 39.9737 13.8253C39.9737 12.619 39.9737 11.6435 40.059 10.9092C40.0252 10.2273 40.1306 9.5456 40.3689 8.90428C40.6072 8.26296 40.9736 7.67497 41.4467 7.17491C42.5149 6.29689 43.89 5.86399 45.2786 5.9686H56.6356V0H45.0758C41.1158 0 38.031 0.923088 35.8428 2.77975C34.7145 3.78863 33.8214 5.02517 33.2245 6.40475C32.6276 7.78432 32.341 9.27436 32.3845 10.7729C32.3631 11.5386 32.3418 12.5876 32.3418 13.8149Z" fill="#000000"></path>
  <path d="M0.000548363 13.8164L7.56836 13.8164L7.56836 0.00155449L0.000548363 0.00155449L0.000548363 13.8164Z" fill="#000000"></path>
  <path d="M28.0411 10.7729C27.9237 7.34275 26.7816 4.63642 24.5507 2.77975C22.3199 0.923088 19.3099 0 15.3498 0H3.7793V5.91615H15.147C16.5356 5.81154 17.9107 6.24444 18.979 7.12246C19.45 7.62385 19.8152 8.21206 20.0533 8.85305C20.2915 9.49404 20.398 10.1751 20.3666 10.8568C20.4199 11.591 20.452 12.5561 20.452 13.7729C20.452 14.9897 20.452 15.9652 20.3666 16.731C20.4441 18.109 19.982 19.464 19.075 20.5177C18.5651 20.9481 17.9731 21.2746 17.3336 21.4781C16.694 21.6816 16.0197 21.758 15.3498 21.7031H3.7793V27.6192H15.5206C23.5687 27.6192 27.7316 24.0178 28.0091 16.8149C28.0091 16.0701 28.0091 15.0736 28.0091 13.8149C28.0091 12.5561 28.0625 11.5386 28.0411 10.7729Z" fill="#000000"></path>
  <path d="M72.1754 22.4594C72.1147 22.4026 72.0663 22.3343 72.0333 22.2585C72.0003 22.1828 71.9833 22.1013 71.9833 22.0189V5.63405C71.9787 5.54732 71.9925 5.46062 72.0237 5.37938C72.055 5.29814 72.103 5.22414 72.1647 5.16202C72.2177 5.10471 72.2818 5.05846 72.3533 5.02602C72.4248 4.99358 72.5023 4.97562 72.581 4.9732H79.3376C81.4633 4.84535 83.5641 5.47888 85.251 6.75644C85.9819 7.39682 86.5634 8.1848 86.9558 9.06648C87.3482 9.94816 87.5422 10.9027 87.5245 11.8649C87.5245 12.3579 87.5245 12.9978 87.5245 13.816C87.5245 14.6342 87.5245 15.2635 87.5245 15.7356C87.3537 20.344 84.6888 22.6482 79.5297 22.6482H72.581C72.4265 22.6374 72.2818 22.57 72.1754 22.4594ZM79.3803 18.8825C79.8098 18.9178 80.2422 18.8693 80.6526 18.7397C81.0629 18.6101 81.4431 18.4019 81.7712 18.1272C82.3408 17.4596 82.6342 16.6059 82.5931 15.7356C82.5931 15.2426 82.6465 14.6132 82.6465 13.8369C82.6465 13.0607 82.6465 12.4418 82.5931 11.9698C82.6149 11.5333 82.5477 11.0969 82.3956 10.6862C82.2435 10.2755 82.0094 9.89879 81.7072 9.57815C81.0171 9.02655 80.1397 8.75288 79.2522 8.81241H76.8506V18.8825H79.3803Z" fill="#000000"></path>
  <path d="M91.7918 22.4594C91.731 22.4026 91.6827 22.3342 91.6497 22.2585C91.6167 22.1828 91.5996 22.1012 91.5996 22.0188V5.63403C91.5982 5.45801 91.6672 5.2885 91.7918 5.16199C91.8516 5.09916 91.9245 5.04976 92.0056 5.01717C92.0867 4.98459 92.1739 4.96958 92.2614 4.97318H104.334C104.421 4.97092 104.508 4.98654 104.589 5.01904C104.67 5.05155 104.743 5.10023 104.803 5.16199C104.868 5.22308 104.919 5.29641 104.954 5.37756C104.989 5.4587 105.007 5.54595 105.006 5.63403V8.13056C105.008 8.2157 104.99 8.30013 104.955 8.37801C104.92 8.4559 104.868 8.52537 104.803 8.58161C104.677 8.69954 104.508 8.76363 104.334 8.75994H96.2108V11.9698H103.768C103.857 11.9685 103.945 11.9846 104.027 12.017C104.11 12.0494 104.185 12.0975 104.248 12.1586C104.311 12.2186 104.36 12.2905 104.393 12.3699C104.426 12.4492 104.442 12.5344 104.44 12.6201V14.9174C104.443 15.0048 104.427 15.0917 104.394 15.1729C104.361 15.2541 104.311 15.3278 104.248 15.3894C104.185 15.4505 104.11 15.4986 104.027 15.531C103.945 15.5634 103.857 15.5795 103.768 15.5782H96.2108V18.8824H104.536C104.625 18.881 104.713 18.8971 104.795 18.9299C104.878 18.9626 104.952 19.0112 105.015 19.0728C105.078 19.1345 105.127 19.2079 105.161 19.2887C105.194 19.3695 105.21 19.4561 105.209 19.5433V22.0293C105.212 22.1138 105.197 22.1979 105.164 22.2758C105.131 22.3538 105.08 22.4236 105.017 22.4804C104.954 22.5411 104.878 22.5882 104.796 22.6189C104.713 22.6496 104.625 22.6632 104.536 22.6587H92.208C92.0488 22.6456 91.9004 22.5745 91.7918 22.4594Z" fill="#000000"></path>
  <path d="M109.44 22.4594C109.38 22.4025 109.331 22.3342 109.298 22.2585C109.265 22.1827 109.248 22.1012 109.248 22.0188V5.63399C109.244 5.45945 109.309 5.29013 109.43 5.16196C109.487 5.09938 109.559 5.05003 109.638 5.0174C109.717 4.98478 109.803 4.96967 109.889 4.97315H122.014C122.103 4.97173 122.191 4.98785 122.273 5.02056C122.356 5.05327 122.43 5.10189 122.493 5.16354C122.556 5.22519 122.605 5.29861 122.638 5.37943C122.672 5.46025 122.688 5.54682 122.687 5.63399V8.13053C122.69 8.21495 122.675 8.2991 122.642 8.37705C122.608 8.45499 122.558 8.52481 122.495 8.58158C122.364 8.70014 122.192 8.76411 122.014 8.7599H113.902V11.9697H121.459C121.547 11.9683 121.633 11.9842 121.714 12.0163C121.795 12.0485 121.869 12.0964 121.93 12.1571C121.992 12.2177 122.041 12.29 122.074 12.3695C122.106 12.4491 122.122 12.5343 122.121 12.6201V14.9173C122.123 15.0047 122.108 15.0917 122.075 15.1729C122.042 15.2541 121.992 15.3277 121.929 15.3894C121.868 15.4506 121.795 15.499 121.714 15.5314C121.633 15.5639 121.546 15.5798 121.459 15.5782H113.902V18.8824H122.228C122.315 18.8808 122.402 18.8967 122.482 18.9291C122.563 18.9616 122.636 19.01 122.697 19.0712C122.761 19.1328 122.81 19.2065 122.843 19.2877C122.876 19.3689 122.892 19.4558 122.89 19.5432V22.0293C122.893 22.1137 122.878 22.1979 122.844 22.2758C122.811 22.3538 122.761 22.4236 122.697 22.4803C122.635 22.5397 122.562 22.5861 122.481 22.6168C122.4 22.6474 122.314 22.6617 122.228 22.6587H109.942C109.849 22.6649 109.755 22.6503 109.668 22.6157C109.581 22.5812 109.503 22.5277 109.44 22.4594Z" fill="#000000"></path>
  <path d="M127.128 22.4573C127.068 22.4004 127.019 22.3321 126.986 22.2564C126.953 22.1806 126.936 22.0991 126.936 22.0167V5.63189C126.929 5.45878 126.99 5.28965 127.107 5.15986C127.168 5.09809 127.241 5.04941 127.322 5.01691C127.402 4.9844 127.489 4.96878 127.577 4.97104H134.845C136.715 4.86238 138.565 5.38826 140.086 6.46057C140.726 6.99203 141.229 7.66398 141.556 8.42206C141.882 9.18013 142.022 10.0031 141.965 10.8243C142.024 11.64 141.882 12.4578 141.552 13.2083C141.221 13.9588 140.711 14.6199 140.065 15.1355C138.527 16.1675 136.684 16.6692 134.824 16.5621H131.899V22.0272C131.899 22.1915 131.834 22.3492 131.718 22.4678C131.657 22.5295 131.584 22.5782 131.503 22.6107C131.423 22.6432 131.336 22.6588 131.248 22.6566H127.555C127.392 22.6482 127.238 22.5766 127.128 22.4573ZM134.717 12.9537C135.319 12.9853 135.911 12.7902 136.372 12.4082C136.582 12.1978 136.745 11.9461 136.85 11.6695C136.955 11.393 136.999 11.0978 136.98 10.8033C137.009 10.2217 136.81 9.65152 136.425 9.20886C136.201 8.99505 135.932 8.83105 135.637 8.72791C135.343 8.62477 135.029 8.58488 134.717 8.61095H131.835V12.9537H134.717Z" fill="#000000"></path>
  <path d="M147.498 21.1148C146.778 20.4726 146.205 19.6865 145.818 18.8091C145.432 17.9317 145.24 16.9833 145.257 16.0274C145.257 15.5553 145.257 14.7896 145.257 13.7301C145.257 12.6707 145.257 11.8944 145.257 11.4119C145.241 10.4766 145.435 9.54928 145.824 8.69556C146.213 7.84184 146.788 7.08254 147.509 6.4713C149.176 5.23 151.237 4.60937 153.326 4.71953C154.789 4.69377 156.242 4.96147 157.596 5.50626C158.687 5.92796 159.65 6.6178 160.392 7.50978C160.991 8.21959 161.346 9.09701 161.407 10.0168C161.41 10.0906 161.397 10.1642 161.37 10.233C161.342 10.3018 161.301 10.3643 161.248 10.4165C161.194 10.4687 161.131 10.5096 161.061 10.5365C160.991 10.5633 160.916 10.5757 160.841 10.5728H156.902C156.765 10.5833 156.628 10.5541 156.507 10.4888C156.399 10.4187 156.305 10.3298 156.23 10.2266C156.017 9.74306 155.678 9.3233 155.248 9.0098C154.678 8.64585 154.005 8.46951 153.326 8.50629C151.341 8.50629 150.316 9.55526 150.252 11.5378C150.252 12.0063 150.252 12.7301 150.252 13.7092C150.252 14.6847 150.252 15.419 150.252 15.9015C150.316 17.9994 151.32 19.1113 153.38 19.1113C154.234 19.1575 155.076 18.8965 155.749 18.377C156.055 18.0938 156.292 17.7472 156.443 17.3625C156.594 16.9777 156.656 16.5646 156.625 16.1532V15.7337H154.33C154.242 15.7353 154.156 15.7194 154.075 15.6869C153.994 15.6544 153.921 15.6061 153.86 15.5448C153.797 15.4832 153.747 15.4096 153.714 15.3284C153.681 15.2472 153.665 15.1602 153.668 15.0728V13.0798C153.665 12.9924 153.681 12.9054 153.714 12.8242C153.747 12.743 153.797 12.6693 153.86 12.6077C153.921 12.5465 153.994 12.4981 154.075 12.4657C154.156 12.4332 154.242 12.4173 154.33 12.4189H160.862C160.949 12.4173 161.036 12.4332 161.117 12.4657C161.198 12.4981 161.271 12.5465 161.332 12.6077C161.395 12.6693 161.445 12.743 161.478 12.8242C161.511 12.9054 161.526 12.9924 161.524 13.0798V16.0064C161.546 17.3169 161.175 18.6048 160.457 19.7092C159.76 20.7579 158.765 21.5823 157.596 22.0799C156.247 22.643 154.792 22.9218 153.326 22.8981C151.227 23.0217 149.155 22.3875 147.498 21.1148Z" fill="#000000"></path>
  <path d="M165.745 22.4586C165.684 22.4018 165.636 22.3335 165.603 22.2577C165.57 22.182 165.553 22.1005 165.553 22.0181V5.63326C165.549 5.45871 165.614 5.2894 165.734 5.16123C165.794 5.09839 165.867 5.04899 165.948 5.01641C166.029 4.98382 166.117 4.96881 166.204 4.97241H173.27C175.173 4.85732 177.058 5.39083 178.607 6.48292C179.239 7.00149 179.74 7.65673 180.072 8.39737C180.403 9.13801 180.556 9.94397 180.518 10.7522C180.551 11.8148 180.262 12.8631 179.685 13.7627C179.109 14.6218 178.299 15.305 177.348 15.7348L180.817 21.8922C180.866 21.9791 180.896 22.0759 180.902 22.1754C180.898 22.3133 180.841 22.4445 180.742 22.5426C180.694 22.5948 180.634 22.636 180.568 22.6632C180.501 22.6904 180.43 22.7029 180.358 22.6999H176.739C176.51 22.714 176.283 22.6553 176.091 22.5325C175.898 22.4097 175.752 22.2293 175.672 22.0181L172.843 16.5425H170.378V22.0286C170.381 22.113 170.366 22.1971 170.332 22.2751C170.299 22.353 170.249 22.4228 170.185 22.4796C170.122 22.5403 170.047 22.5875 169.964 22.6182C169.882 22.6488 169.793 22.6624 169.705 22.6579H166.193C166.109 22.6554 166.026 22.6365 165.949 22.6023C165.872 22.5681 165.803 22.5193 165.745 22.4586ZM173.217 12.7767C173.83 12.8211 174.437 12.625 174.903 12.2312C175.101 12.0348 175.254 11.7998 175.354 11.5414C175.453 11.283 175.496 11.007 175.48 10.7312C175.494 10.4493 175.45 10.1674 175.351 9.90249C175.252 9.63753 175.1 9.39494 174.903 9.18925C174.677 8.98517 174.411 8.82872 174.121 8.7295C173.831 8.63029 173.523 8.59041 173.217 8.61232H170.367V12.8082L173.217 12.7767Z" fill="#000000"></path>
  <path d="M183.903 22.4899C183.804 22.3918 183.747 22.2606 183.742 22.1227C183.729 22.0464 183.729 21.9683 183.742 21.892L189.73 5.70646C189.788 5.47814 189.928 5.27808 190.124 5.14314C190.321 5.00821 190.56 4.94749 190.798 4.97219H194.811C195.049 4.94749 195.289 5.00821 195.485 5.14314C195.681 5.27808 195.821 5.47814 195.879 5.70646L201.867 21.892C201.881 21.9683 201.881 22.0465 201.867 22.1227C201.859 22.2618 201.798 22.3928 201.696 22.4899C201.597 22.5887 201.463 22.6453 201.322 22.6472H197.981C197.794 22.659 197.608 22.6113 197.45 22.5112C197.293 22.4111 197.172 22.2639 197.106 22.0913L196.178 19.6472H189.453L188.524 22.0913C188.458 22.2639 188.338 22.4111 188.18 22.5112C188.023 22.6113 187.836 22.659 187.649 22.6472H184.308C184.233 22.6505 184.158 22.6382 184.088 22.6111C184.018 22.584 183.955 22.5427 183.903 22.4899ZM190.499 15.8604H195.067L192.783 9.44077L190.499 15.8604Z" fill="#000000"></path>
  <path d="M205.331 22.4704C205.268 22.4137 205.217 22.3438 205.184 22.2659C205.151 22.1879 205.136 22.1038 205.139 22.0194V5.63455C205.138 5.54738 205.154 5.46081 205.187 5.37999C205.221 5.29917 205.27 5.22576 205.333 5.16411C205.396 5.10246 205.47 5.05383 205.553 5.02112C205.635 4.98841 205.723 4.97229 205.812 4.97371H208.715C208.908 4.96478 209.1 5.01294 209.266 5.11201C209.431 5.21108 209.563 5.35653 209.644 5.52966L214.063 13.3025L218.503 5.52966C218.584 5.35653 218.715 5.21108 218.881 5.11201C219.046 5.01294 219.238 4.96478 219.432 4.97371H222.335C222.422 4.97145 222.509 4.98707 222.59 5.01957C222.671 5.05208 222.744 5.10076 222.805 5.16252C222.868 5.22412 222.917 5.29779 222.95 5.37898C222.983 5.46017 222.999 5.54715 222.997 5.63455V22.0299C223 22.1143 222.985 22.1984 222.952 22.2764C222.918 22.3543 222.868 22.4241 222.805 22.4809C222.743 22.5413 222.67 22.5884 222.589 22.6191C222.508 22.6498 222.421 22.6635 222.335 22.6592H219.069C218.9 22.654 218.741 22.586 218.622 22.4691C218.503 22.3522 218.434 22.1951 218.428 22.0299V12.8304L215.61 17.834C215.527 18.0013 215.401 18.1438 215.243 18.2471C215.085 18.3503 214.903 18.4105 214.714 18.4214H213.326C213.135 18.4123 212.95 18.353 212.791 18.2496C212.631 18.1463 212.503 18.0028 212.419 17.834L209.676 12.8409V22.0299C209.679 22.1143 209.664 22.1984 209.631 22.2764C209.597 22.3543 209.547 22.4241 209.483 22.4809C209.42 22.5416 209.345 22.5888 209.262 22.6194C209.18 22.6501 209.091 22.6637 209.003 22.6592H205.801C205.714 22.6609 205.627 22.645 205.546 22.6125C205.466 22.58 205.392 22.5317 205.331 22.4704Z" fill="#000000"></path>
</svg>

<svg xmlns="http://www.w3.org/2000/svg" width="223" height="28" fill="none">
  <path fill="currentColor" d="M60.425 13.816h-7.568v13.815h7.568V13.816Z" />
  <path fill="currentColor"
    d="M32.342 13.815v3c.27 7.203 4.433 10.804 12.488 10.804h11.742v-5.916H45.076a5.186 5.186 0 0 1-1.989-.225 5.127 5.127 0 0 1-1.747-.96 5.384 5.384 0 0 1-1.281-3.735 43.71 43.71 0 0 1-.085-2.958c0-1.206 0-2.181.085-2.916a5.038 5.038 0 0 1 .31-2.005 5.103 5.103 0 0 1 1.078-1.73 5.399 5.399 0 0 1 3.832-1.205h11.357V0h-11.56c-3.96 0-7.045.923-9.233 2.78a10.41 10.41 0 0 0-2.619 3.625 10.248 10.248 0 0 0-.84 4.368c-.02.766-.042 1.815-.042 3.042ZM0 13.816h7.568V.002H.001v13.814Z" />
  <path fill="currentColor"
    d="M28.041 10.773c-.117-3.43-1.26-6.137-3.49-7.993C22.32.923 19.31 0 15.35 0H3.78v5.916h11.367a5.4 5.4 0 0 1 3.832 1.206c.471.502.836 1.09 1.074 1.731a5.08 5.08 0 0 1 .314 2.004c.053.734.085 1.7.085 2.916 0 1.217 0 2.192-.085 2.958a5.342 5.342 0 0 1-1.292 3.787c-.51.43-1.102.757-1.741.96-.64.204-1.314.28-1.984.225H3.78v5.916h11.74c8.049 0 12.212-3.601 12.49-10.804v-3c0-1.259.052-2.276.031-3.042ZM72.175 22.46a.607.607 0 0 1-.192-.441V5.634a.619.619 0 0 1 .182-.472.587.587 0 0 1 .416-.189h6.757a8.913 8.913 0 0 1 5.913 1.783 6.688 6.688 0 0 1 1.705 2.31c.392.882.586 1.837.569 2.799v3.871c-.171 4.608-2.836 6.912-7.995 6.912H72.58a.623.623 0 0 1-.406-.189Zm7.205-3.578c.43.036.862-.013 1.273-.142.41-.13.79-.338 1.118-.613.57-.667.863-1.521.822-2.391 0-.493.053-1.123.053-1.9 0-.775 0-1.394-.053-1.866a3.231 3.231 0 0 0-.197-1.284 3.274 3.274 0 0 0-.689-1.108 3.553 3.553 0 0 0-2.455-.766h-2.401v10.07h2.53ZM91.792 22.46a.607.607 0 0 1-.192-.441V5.634a.665.665 0 0 1 .406-.617.618.618 0 0 1 .255-.044h12.073a.641.641 0 0 1 .469.189.647.647 0 0 1 .203.472v2.497a.571.571 0 0 1-.203.45.666.666 0 0 1-.469.179h-8.123v3.21h7.557a.678.678 0 0 1 .48.189.62.62 0 0 1 .192.461v2.297a.622.622 0 0 1-.192.472.663.663 0 0 1-.48.19h-7.557v3.303h8.325a.669.669 0 0 1 .625.407c.033.08.049.167.048.254v2.486a.579.579 0 0 1-.192.451.645.645 0 0 1-.481.179H92.208a.645.645 0 0 1-.416-.2ZM109.44 22.46a.6.6 0 0 1-.192-.44V5.633a.665.665 0 0 1 .182-.472.583.583 0 0 1 .459-.189h12.125a.67.67 0 0 1 .479.19.64.64 0 0 1 .194.471v2.497a.58.58 0 0 1-.192.45.692.692 0 0 1-.481.179h-8.112v3.21h7.557a.661.661 0 0 1 .471.187.64.64 0 0 1 .191.463v2.297a.64.64 0 0 1-.407.614.654.654 0 0 1-.255.047h-7.557v3.304h8.326a.647.647 0 0 1 .615.406.64.64 0 0 1 .047.255v2.486a.565.565 0 0 1-.193.451.639.639 0 0 1-.469.179h-12.286a.63.63 0 0 1-.502-.2ZM127.128 22.457a.6.6 0 0 1-.192-.44V5.632a.664.664 0 0 1 .171-.472.633.633 0 0 1 .47-.189h7.268a8.267 8.267 0 0 1 5.241 1.49 5.256 5.256 0 0 1 1.47 1.961c.326.758.466 1.581.409 2.402a5.021 5.021 0 0 1-.413 2.384 5.1 5.1 0 0 1-1.487 1.928 8.53 8.53 0 0 1-5.241 1.426h-2.925v5.465a.63.63 0 0 1-.651.63h-3.693a.625.625 0 0 1-.427-.2Zm7.589-9.503a2.398 2.398 0 0 0 1.655-.546c.21-.21.373-.462.478-.739.105-.276.149-.571.13-.866a2.258 2.258 0 0 0-.555-1.594 2.222 2.222 0 0 0-1.708-.598h-2.882v4.343h2.882ZM147.498 21.115a6.731 6.731 0 0 1-1.68-2.306 6.615 6.615 0 0 1-.561-2.782v-4.615a6.29 6.29 0 0 1 .567-2.716 6.391 6.391 0 0 1 1.685-2.225 8.955 8.955 0 0 1 5.817-1.751 10.927 10.927 0 0 1 4.27.786 6.845 6.845 0 0 1 2.796 2.004 4.33 4.33 0 0 1 1.015 2.507.533.533 0 0 1-.346.52.556.556 0 0 1-.22.036h-3.939a.716.716 0 0 1-.395-.084 1.047 1.047 0 0 1-.277-.262 3.008 3.008 0 0 0-.982-1.217 3.247 3.247 0 0 0-1.922-.504c-1.985 0-3.01 1.05-3.074 3.032v4.364c.064 2.097 1.068 3.21 3.128 3.21a3.564 3.564 0 0 0 2.369-.735 2.753 2.753 0 0 0 .876-2.224v-.42h-2.295a.65.65 0 0 1-.662-.66V13.08a.622.622 0 0 1 .192-.472.638.638 0 0 1 .47-.19h6.532a.654.654 0 0 1 .616.406.64.64 0 0 1 .046.256v2.926a6.588 6.588 0 0 1-1.067 3.703 6.479 6.479 0 0 1-2.861 2.37 10.643 10.643 0 0 1-4.27.82 8.73 8.73 0 0 1-5.828-1.784ZM165.745 22.459a.603.603 0 0 1-.192-.44V5.632a.668.668 0 0 1 .181-.472.611.611 0 0 1 .47-.189h7.066a8.388 8.388 0 0 1 5.337 1.51 5.26 5.26 0 0 1 1.465 1.915c.331.741.484 1.547.446 2.355a5.27 5.27 0 0 1-.833 3.01 5.576 5.576 0 0 1-2.337 1.973l3.469 6.157a.659.659 0 0 1 .085.283.539.539 0 0 1-.16.368.49.49 0 0 1-.384.157h-3.619a1.08 1.08 0 0 1-.648-.168 1.05 1.05 0 0 1-.419-.514l-2.829-5.476h-2.465v5.487a.565.565 0 0 1-.193.45.636.636 0 0 1-.48.179h-3.512a.65.65 0 0 1-.448-.2Zm7.472-9.682a2.351 2.351 0 0 0 1.686-.546 1.949 1.949 0 0 0 .577-1.5 2.073 2.073 0 0 0-.577-1.542 2.256 2.256 0 0 0-.782-.46 2.29 2.29 0 0 0-.904-.117h-2.85v4.196l2.85-.031ZM183.903 22.49a.544.544 0 0 1-.161-.367.687.687 0 0 1 0-.231l5.988-16.186a.977.977 0 0 1 .394-.563c.197-.135.436-.196.674-.17h4.013c.238-.026.478.035.674.17a.977.977 0 0 1 .394.563l5.988 16.186a.639.639 0 0 1 0 .23.55.55 0 0 1-.171.368.54.54 0 0 1-.374.157h-3.341a.888.888 0 0 1-.531-.136.866.866 0 0 1-.344-.42l-.928-2.444h-6.725l-.929 2.444a.86.86 0 0 1-.344.42.886.886 0 0 1-.531.136h-3.341a.544.544 0 0 1-.405-.157Zm6.596-6.63h4.568l-2.284-6.42-2.284 6.42ZM205.331 22.47a.582.582 0 0 1-.192-.45V5.634a.653.653 0 0 1 .194-.47.66.66 0 0 1 .479-.191h2.903a.987.987 0 0 1 .551.138c.165.1.297.245.378.418l4.419 7.772 4.44-7.772a.96.96 0 0 1 .378-.418.983.983 0 0 1 .551-.138h2.903a.641.641 0 0 1 .615.405.64.64 0 0 1 .047.256V22.03a.58.58 0 0 1-.192.45.628.628 0 0 1-.47.18h-3.266a.666.666 0 0 1-.447-.19.648.648 0 0 1-.194-.44v-9.2l-2.818 5.004c-.083.167-.209.31-.367.413a1.08 1.08 0 0 1-.529.174h-1.388a1.076 1.076 0 0 1-.907-.587l-2.743-4.993v9.189a.58.58 0 0 1-.193.45.634.634 0 0 1-.48.18h-3.202a.652.652 0 0 1-.47-.19Z" />
</svg>
